X:1
T:Pater peccavi
T:Pater peccavi
T:Johannes Consilium
C:Johannes Consilium
%%score [ 1 [ 2 3 ] 4 ]
L:1/8
Q:1/4=120
M:2/2
K:C
V:1 treble nm="Soprano" snm="S"
V:2 treble-8 nm="Tenor 1" snm="T 1"
V:3 treble-8 nm="Tenor 2" snm="T 2"
V:4 bass nm="Bass" snm="B"
V:1
 z4 D4- | D4 D4 | A6 B2 | c4 A2 c2- | c2 BA GABc | B2 A4 G2 | A8- | A8 | A4 z4 | z2 d4 c2 | %10
w: Pa-|* ter|pec- *|ca- vi, Pa-||* ter pec-|ca-||vi|in coe-|
 A2 A2 c2 c2 | B4 z2 d2- | d2 d2 A2 A2 | c2 c2 B4- | B2 G2 A2 B2- | B2 A4 G2 | A4 A4- | A4 A4 | %18
w: lum et co- ram|te, et|_ coe- lum et|co- ram te,|_ et co- *|* * ram|te. Iam|_ non|
 G4 A4- | A4 G4- | G4 c4- | c2 B2 A4- | A2 G2 F3 E | D2 C4 B,2 | C2 c4 B2 | A2 G2 F2 E2 | D4 C4- | %27
w: sum di-|* gnus|_ vo-|* ca- ri|_ fi- li- us|tu- * *|us, vo- ca-|ri fi- li- us|tu- us,|
 C4 z2 E2 | E2 E2 G4- | G2 FE F2 G2 | A2 B2 G2 c2- | c2 BA G2 A2- | AGFE DEFG | AB c2 B2 A2 | %34
w: _ fac-|me sic- ut|_ _ _ _ _|* u- num ex|_ _ _ _ mer-||* * ce- na- ri-|
"^#" A2 G2 A4- | A4 z4 | z8 | z8 | z8 | z8 | z8 | z8 | z2 c2 c2 c2 | B2 c3 BAG | A4 G4 | G4 F2 F2 | %46
w: is tu- is,|_|||||||fac me sic-|ut u- * * *|* num|ex mer- ce-|
 E6 DC | D4 E4- | E4 E4- | E8 |][M:2/2] E8 | E8 | D6 C2 | F4 F4 | E8- |"^SECUNDA""^PARS" E8 | z8 | %57
w: na- ri- *|is tu-|* is.|_|Quan-|ti|mer- ce-|na- ri-|i|_||
 z8 | z8 | z8 | z4 z4 | z4 z2 G2- | G2 E2 F2 G2 | ABcd B2 A2- | A2 G2 A2 EF | GABc d3 c | %66
w: ||||a-|* bun- dant pa-||* ni- bus, a- *|* * * * bun- *|
 AB c2 B4 | A2 d4 c2 | d2 c4 B2 | c8 | z2 GA Bc d2- | d2 c4 B2 | c4 c4- | c2 c2 c4 | B4 c4- | %75
w: dant _ pa- ni-|bus, a- bun-|dant pa- ni-|bus,|a- * bun- * dant|_ pa- ni-|bus, e-|* go au-|tem hic|
 c2 B2 A2 G2- | G2 F2 G4 | c6 B2 | A2 G2 F2 E2- | E2 D2 E4- | E8- | E4 z4 | z8 | z8 | z8 | z8 | %86
w: _ fa- me per-|* e- o,|e- go|au- tem per- *|* e- o,|_||||||
 z8 | z2 B2 B4 | z2 B2 B2 A2- | A2 c4 B2 | A2 G2 F4 | E2 G2 A2 B2 | c3 B AG B2- | BA A4 G2 | %94
w: |Sur- gam,|et i- bo|_ ad Pa-|trem me- um|et di- cam e-|||
 A4 z2 c2 | c2 c2 B2 c2- | cBAG A4 | G4 G4 | F2 F2 E2 F2- | FE E4 D2 | E8- | E8- | E8- | E8 | z8 |] %105
w: i: fac|me sic- ut u-||num ex|mer- ce- na- ri-|* * is tu-|is.|_||||
V:2
 G8 | G4 d4- | d2 e2 f4 | e8- | e4 z2 g2- | g2 f2 d2 d2 | f2 f2 e4 | z2 f4 e2 | c2 c2 e2 e2 | %9
w: Pa-|ter pec-|* * ca-|vi|_ in|_ coe- lum et|co- ram te,|in coe-|lum et co- ram|
 d3 e f2 e2- | edcB A4 | z2 g4 g2 | d2 d2 f4 | e4 d4 | g4 f4- | f2 d2 e4 | e4 e4 | e8 | e6 dc | %19
w: te, _ _ _|_ _ _ _ _|in coe-|lum et co-|ram te.|Iam non|_ sum di-|gnus vo-|ca-||
 d4 e4- | e8- | e4 f4- | f2 e2 d2 c2 | d2 e2 f4 | e8 | z2 c2 d2 e2 | f4 e4 | z2 A2 A2 A2 | c6 BA | %29
w: * ri|_|* fi-|* li- us tu-||us,|fi- li- us|tu- us,|fac me sic-|ut _ _|
 B2 c2 d2 e2 | c2 d2 edcB | A2 B2 cBAG | FEDE FGAB | cdec dcBA | B4 A4- | A4 z4 | z8 | z8 | z8 | %39
w: _ u- num ex|mer- ce- na- * * *|* ri- is _ _ _|_ _ _ _ _ _ _ _||tu- is,|_||||
 z8 | z8 | z8 | z2 e2 e2 e2 | e4 c4- | c2 d2 e4- | e2 e2 d4 | G4 A4- | A2 A2 B2 c2- | c2 B2 c4- | %49
w: |||fac me sic-|ut u-|* num ex|_ mer- ce-|na- *|* ri- is tu-|* * is.|
 c8 |][M:2/2] c8 | c8 | B4 A2 FG | AB c4 B2 | c8 | z8 | z8 | z8 | z8 | z8 | z8 | z4 z2 e2- | %62
w: _|Quan-|ti|mer- ce- na- *|* * * ri-|i|||||||in|
 e2 c2 d2 e2 | f3 e d2 c2 | B4 ABcd | ef g3 f de | f2 g3 f de | f4 e4 | d2 e2 d3 c/B/ | %69
w: _ do- mo Pa-|tris _ _ me-|i _ _ _ _|_ _ _ _ _ _|a- bun- * * *|* dant|pa- ni- bus, _ _|
 ABcd ef g2- | gfde fg a2- | a2 f2 g4 | e4 g4- | g2 g2 g4 | g4 g4- | g2 f2 e2 e2 | d4 B4 | g4 e4 | %78
w: _ _ _ _ _ _ _||* pa- ni-|bus, e-|* go au-|tem hic|_ fa- me per-|e- o,|_ _|
 f4 c4 | A3 B c4- | c2 BA G4- | G4 z4 | z8 | z8 | z8 | z8 | z4 z2 e2 | e4 z2 e2 | e2 d4 f2- | %89
w: * per-|e- * *|* * * o.|_|||||Sur-|gam, et|i- bo ad|
 f2 e2 d2 d2 | cB e4 d2 | e2 c4 d2 | e2 g2 f2 e2- | e2 d2 e4- | e4 z2 e2 | e2 e2 e4 | c6 d2 | %97
w: _ Pa- trem me-|um et di- cam|e- i, et|di- * * cam|_ e- i:|_ fac|me sic- ut|u- *|
 e4 e4 | d2 B2 c2 c2 | c4 A2 A2 | c3 B A4 | G4 c4- |"^#""^#" c2 B2 A3 G/F/ |"^#" G8 | z8 |] %105
w: num ex|mer- ce- na- ri-|is tu- is,|ex- * mer-|ce- na-|* ri- is tu- *|is.||
V:3
 z8 | z4 D4- | D4 D4 | A6 B2 | c4 B4 | G2 A2 B4 | z2 d4 c2 | A3 G AB c2- | cBAG/F/ E2 A2- | %9
w: |Pa-|* ter|pec- *|ca- *|* * vi|in coe-|lum _ _ _ _|_ _ _ _ _ _ _|
 A2 G2 A4- | A2 GF E2 F2 | G4 z2 G2- | GABc d4 | A2 c2 G3 A | Bc d4 d2 | c2 A2 B4 | A4 c4- | %17
w: * et co-|* * * * ram|te, in|_ _ _ _ coe-|lum et co- *|* * * ram|_ _ _|te. Iam|
 c4 c4 | B2 c3 BAG | A4 B4 | c6 B2 | A6 G2 | F2 G2 D2 A2- | A2 G4 F2 | A4 z2 E2 | F2 G2 A4- | A8- | %27
w: _ non|sum di- * * *|gnus vo-|ca- ri-|fi- *|* li- us tu-||us, [fi-|li- us tu-||
 A4 E4- | E4 z4 | z8 | z8 | z8 | z8 | z8 | z8 | z2 E2 E2 E2 | G6 FE | F2 G2 A2 B2 | G2 c4 BA | %39
w: * us]|_|||||||fac me sic-|ut _ _|_ u- num ex|mer- ce- * *|
 G2 A3 GFE | DEFG AB c2 |"^#" B2 A4 G2 | A2 A2 A2 A2 | G4 A4- | A4 B4 | c4 A2 B2- | B2 c3 BAG | %47
w: |* * * * * * na-|ri- is tu-|is, fac me sic-|ut u-|* num|ex mer- ce-|* na- * * *|
 A2 A2 G2 A2- | A2 G2 A4- | A8 |][M:2/2] A8 | G8 | G4 F2 A2- | A2 G4 F2 | G8 | z2 G4 E2 | %56
w: * ri- is tu-|* * is.|_|Quan-|ti|mer- ce- na-|* * ri-|i|in do-|
 F2 G2 ABcA | B2 A4 G2 | A2 EF GABc | d3 c A2 B2 | c2 d4 c2- | c2 B2 c4- | c4 z4 | z8 | z8 | z8 | %66
w: mo Pa- treis _ _ _|me- i a-|bun- dant _ _ _ _ _|_ _ _ _|* * pa-|* ni- bus,|_||||
 z2 EF GABc | d3 c ABcA | B2 c2 G4 | z4 z2 G2- | GA Bc de f2- | fedc d4 | c4 e4- | e2 e2 e4 | %74
w: a- * * * * *|* bun- dant _ _ _|_ _ _|a-|* * bun- * dant _ pa-|* * * * ni-|bus, e-|* go au-|
 d4 e4- | e2 d2 c2 B2 | A2 A2 G4- | G4 c4- | c2 B2 A2 G2 | F2 F2 E4- | E4 z2 B2 | B4 z2 B2 | %82
w: tem hic|_ fa- me per-|_ e- o,|_ e-|* go au- tem|per- e- o.|_ Sur-|gam, et|
 B2 A4 c2- | c2 B2 A2 A2 | G3 A Bc d2- | d2 cB cd e2- | e2 d2 e4 | z8 | z8 | z8 | z2 G2 A2 B2 | %91
w: i- bo ad|_ Pa- trem me-|um, _ _ _ _|_ me- * * * *|* * um,||||ad Pa- trem|
 c3 B A2 G2- | G2 E2 F2 G2 | A4 B4 | A4 z2 A2 | A2 A2 G4 | A8 | B4 c4 | A2 F2 G2 A2- | AGFE F2 F2 | %100
w: me- * * um|_ et di- cam|e- *|i: fac|me sic- ut|u-|num ex|mer- ce- na- ri-|is _ _ _ _ tu-|
 E2 A2 c4- | c2 B2 A2 G2 | A2 B2 c4 | B8 | z8 |] %105
w: is, ex mer-|* ce- na- ri-|is _ tu-|is.||
V:4
 z8 | z8 | z8 | A,,8 | A,,4 E,4- | E,2 F,2 G,4 | F,2 D,2 A,4 | z2 D,4 C,2 | A,,2 A,,2 C,4 | %9
w: |||Pa-|ter pec-|* * ca-|* * vi|in coe-|lum et co-|
"^#" B,,4 A,,4- | A,,8 | z8 | z8 | z4 z2 G,2- | G,2 G,2 D,2 D,2 | F,4 E,4 | A,,4 A,,4- | %17
w: ram te,|_|||in|_ coe- lum et|co- ram|te. Iam|
 A,,4 A,,4 | E,4 F,4- | F,4 E,4- | E,4 A,,4- | A,,4 z4 | z4 F,4- | F,2 E,2 D,4 | z2 A,4 G,2 | %25
w: _ non|sum di-||* gnus|_|vo|_ ca- ri|fi- li-|
 F,2 E,2 D,2 C,2 | D,4 A,,4- | A,,8- | A,,4 z4 | z8 | z8 | z8 | z8 | z8 | z4 z2 A,,2 | %35
w: us tu- * *|* us,|_|||||||fac|
 A,,2 A,,2 C,4- | C,2 B,,A,, B,,2 C,2 | D,2 E,2 C,2 D,2 | E,D,C,B,, A,,2 B,,2 | C,2 A,,2 D,3 C, | %40
w: me sic- ut|_ _ _ _ _|* u- num ex|mer- * * * * ce-|na- ri- is _|
 B,,2 A,,B,, C,D,E,C, | D,C,B,,A,, B,,4 | A,,2 A,,2 A,,2 A,,2 | E,4 F,4- | F,4 E,4 | C,4 D,4 | %46
w: _ tu- * * * * *||is, fac me sic-|ut u-|* num|ex mer-|
 E,4 F,4 | F,4 E,4 | E,4 A,,4- | A,,8 |][M:2/2] A,,8 | C,8 | G,,A,,B,,C, D,E, F,2- | %53
w: ce- na-|ri- is|tu- is.|_|Quan-|ti|mer- * * * * * ce-|
 F,E,D,C, D,2 D,2 | C,8 | z2 E,4 C,2 | D,2 E,2 F,3 E, | D,2 C,2 B,,4 | A,,B,,C,D, E,F, G,2 | %59
w: * * * * na- ri-|i|in do-|mo Pa- tris _|_ me- i|_ _ _ _ _ _ _|
 G,F,D,E, F,2 G,2 | E,2 F,3 E, D,C, | D,2 D,2 C,4- | C,4 z4 | z8 | z8 | z8 | z8 | z8 | z8 | %69
w: * * * * a- bun-|dant pa- * * *|* ni- bus,|_|||||||
 z2 A,,B,, C,D,E,F, | G,3 F, D,3 E, | F,G, A,2 G,4 | C,4 C,4- | C,2 C,2 C,4 | G,4 C,4 | C,6 C,2 | %76
w: pa- * * * * *||* * * ni-|bus, e-|* go au-|tem hic|fa- me|
 D,2 D,2 E,4- | E,4 C,4 | F,6 C,2 | D,2 D,2 A,,4 | z2 E,2 E,4 | z2 E,2 E,2 D,2- | D,2 F,4 E,2 | %83
w: per- e- o,|_ hic-|au- tem|per- e- o.|Sur- gam,|et i- bo|_ ad Pa-|
 D,2 D,2 C,3 D, | E,F, G,4 F,E, | F,G, A,4 G,2 | F,4 E,4- | E,4 z4 |"^#" z8 | z8 | z8 | z8 | %92
w: rem me- um, _|_ _ ad _ _|_ _ Pa- trem|me- um,|_|||||
 C,4 D,2 E,2 | F,4 E,4 | A,,4 z2 A,,2 | A,,2 A,,2 E,4 | F,8 | E,4 C,4 | D,4 C,2 A,,2 | %99
w: et di- cam|e- *|i: fac|me sic- ut|u-|num ex|mer- ce- na-|
 C,2 C,2 D,4 | A,,6 A,,2 | C,6 B,,2 | A,,2 G,,2 A,,2 A,,2 | E,,8 | z8 |] %105
w: ri- is tu-|is, ex|mer- ce-|na- ri- is tu-|is.||

